X: 1
T: the Bush in Blossom
O: Kerr's Violin
R: reel
Z: 2005 John Chambers <jc:trillian.mit.edu>
M: C|
L: 1/8
K: G
Bc | "G"d2BG "D"AGEF | "G"G2Bd "C"efge | "G"d2BG "Am"AGEF | "D7"GBAF "G"G2 :|
Bd | "G"g2dg "C"egdg | "G"g2bg "D"agab | "G"g2dg  "C"egdg | "D7"edef "G"g2 |]
ga | "Em"~b2ga  bgef | "C"gage "D"dega | "G"b2af "Em"gfed | "D7"egfa "G"g2 |]
